src/assets/img/bottom-filling/adv1.svg

<svg width="47" height="60" viewBox="0 0 47 60" fill="none" xmlns="http://www.w3.org/2000/svg">
<path d="M45.0994 11.5687L23.8757 0.259246C23.2192 -0.0910279 22.4326 -0.0858716 21.7805 0.271785L1.14422 11.5812C0.438516 11.9683 0 12.7084 0 13.5134V29.523C0 42.1015 7.46508 53.5014 19.0213 58.5679L21.8854 59.8164C22.1659 59.9391 22.4662 60 22.7659 60C23.0633 60 23.3607 59.9398 23.6391 59.8193L26.8637 58.4269C38.6505 53.4389 46.2662 41.9788 46.2662 29.2285V13.5127C46.2663 12.6989 45.8176 11.9514 45.0994 11.5687ZM41.86 29.2285C41.86 40.2082 35.2975 50.0769 25.1395 54.3716C25.1344 54.3739 25.1292 54.3761 25.1241 54.3782L22.7704 55.3946L20.7867 54.5295C10.8359 50.1673 4.40625 40.3514 4.40625 29.5223V14.8177L22.8547 4.70815L41.8598 14.8354V29.2285H41.86Z" fill="#333333"/>
<path d="M34.5366 24.0937C33.7692 23.15 32.3805 23.0068 31.4368 23.775L20.1066 32.9923L15.9221 28.0924C15.1326 27.1671 13.741 27.0576 12.8164 27.8478C11.8911 28.6373 11.7816 30.0282 12.5718 30.9535L18.1531 37.4889C18.5886 37.9992 19.207 38.2615 19.8297 38.2615C20.3188 38.2615 20.8108 38.0999 21.2184 37.7672L34.2178 27.1928C35.1624 26.4254 35.3048 25.0375 34.5366 24.0937Z" fill="#333333"/>
</svg>

<svg width="47" height="60" fill="none" xmlns="http://www.w3.org/2000/svg"><path d="M45.1 11.569L23.875.259a2.2 2.2 0 00-2.096.013L1.145 11.582A2.203 2.203 0 000 13.512v16.01C0 42.101 7.465 53.5 19.021 58.567l2.864 1.248a2.197 2.197 0 001.754.003l3.225-1.392c11.787-4.988 19.402-16.448 19.402-29.198V13.513a2.2 2.2 0 00-1.167-1.944zm-3.24 17.66c0 10.98-6.563 20.848-16.72 25.143a.51.51 0 01-.016.006l-2.354 1.017-1.983-.866c-9.951-4.362-16.38-14.178-16.38-25.007V14.818l18.448-10.11L41.86 14.835v14.393z" fill="#333"/><path d="M34.537 24.094a2.203 2.203 0 00-3.1-.319l-11.33 9.217-4.185-4.9a2.203 2.203 0 10-3.35 2.861l5.581 6.536a2.198 2.198 0 003.065.278l13-10.574a2.202 2.202 0 00.319-3.1z" fill="#333"/></svg>
